X:127
T:The Black and the Grey
Z:Jack Campin, http://www.campin.me.uk/
S:Northumbrian Minstrelsy
M:6/8
L:1/8
K:G
 d|BGd f2d|gaf  g2d |BGd  adc| (B3 G2)
 B|cAe a2e|ab^g a2e |cAe  aed|(^c3 A2)
=c|BGd g2d|gaf  g2d |BGd  gdc| (B3 c2)
 d|ece dBd|cAc  BA^G|Aa^g aed|(^c3 A2):|
=c|BGG dGG|gGG  dGG |BGG  gdc|   B3 G2
 B|cAA eAA|gAA  eAA |cAA  aed|(^c3 A2)
=c|BGG dGG|gGG  dBB |BGd  gdc|  B3 c2
 d|ece dBd|cAc  BA^G|Aa^g aed| ^c3 A2 :|

